X:288
M:C|
L:1/8
K:E Minor
|:E(ee)f g2 f>e|defg afdf|1 edef g2 fe|efe^d e2E:|2 g2 bg f2 af|efe^d e2E||

